package/converter/svg/thin/square-user.svg

<svg xmlns="http://www.w3.org/2000/svg" viewBox="0 0 448 512"><!-- Font Awesome Pro 6.0.0-alpha2 by @fontawesome - https://fontawesome.com License - https://fontawesome.com/license (Commercial License) --><path d="M384 32H64C28.654 32 0 60.652 0 96V416C0 451.346 28.654 480 64 480H384C419.346 480 448 451.346 448 416V96C448 60.652 419.346 32 384 32ZM368 464H80V448C80 386.242 130.244 336 192 336H256C317.758 336 368 386.242 368 448V464ZM432 416C432 442.467 410.467 464 384 464V448C384 377.307 326.693 320 256 320H192C121.309 320 64 377.307 64 448V464C37.533 464 16 442.467 16 416V96C16 69.533 37.533 48 64 48H384C410.467 48 432 69.533 432 96V416ZM224 128C179.818 128 144 163.816 144 208C144 252.182 179.818 288 224 288C268.184 288 304 252.182 304 208C304 163.816 268.184 128 224 128ZM224 272C188.711 272 160 243.289 160 208C160 172.709 188.711 144 224 144S288 172.709 288 208C288 243.289 259.289 272 224 272Z"/></svg>

<svg xmlns="http://www.w3.org/2000/svg" viewBox="0 0 448 512"><!--! Font Awesome Pro 6.6.0 by @fontawesome - https://fontawesome.com License - https://fontawesome.com/license (Commercial License) Copyright 2024 Fonticons, Inc. --><path d="M384 48c26.5 0 48 21.5 48 48l0 320c0 26.5-21.5 48-48 48l0-16c0-70.7-57.3-128-128-128l-64 0c-70.7 0-128 57.3-128 128l0 16c-26.5 0-48-21.5-48-48L16 96c0-26.5 21.5-48 48-48l320 0zM368 464L80 464l0-16c0-61.9 50.1-112 112-112l64 0c61.9 0 112 50.1 112 112l0 16zM64 32C28.7 32 0 60.7 0 96L0 416c0 35.3 28.7 64 64 64l320 0c35.3 0 64-28.7 64-64l0-320c0-35.3-28.7-64-64-64L64 32zM304 208a80 80 0 1 0 -160 0 80 80 0 1 0 160 0zm-80-64a64 64 0 1 1 0 128 64 64 0 1 1 0-128z"/></svg>
